contributed-vectors/photodirector.svg

<svg width="192" height="192" version="1.1" viewBox="0 0 192 192" xmlns="http://www.w3.org/2000/svg" xmlns:xlink="http://www.w3.org/1999/xlink">
 <defs>
  <linearGradient id="linearGradient847" x1="68" x2="124" y1="68" y2="124" gradientUnits="userSpaceOnUse">
   <stop style="stop-color:#bd9aff" offset="0"/>
   <stop style="stop-color:#728dbe" offset="1"/>
  </linearGradient>
 </defs>
 <path d="m8 96a88 88 0 0 0 88 88v-88h-88z" style="fill:#ba6561"/>
 <path d="m96 96-62.188 62.188a88 88 0 0 0 62.188 25.812v-88z" style="fill:#bd9aff"/>
 <path d="m96 96v88a88 88 0 0 0 88-88h-88z" style="fill:#9abeff"/>
 <path d="m96 96v88a88 88 0 0 0 62.188-25.812l-62.188-62.188z" style="fill:#728dbe"/>
 <path d="m96 8v88h88a88 88 0 0 0-88-88z" style="fill:#71a372"/>
 <path d="m96 8a88 88 0 0 0-88 88h88v-88z" style="fill:#f8c18c"/>
 <path d="m96 8v88l62.188-62.188a88 88 0 0 0-62.188-25.812z" style="fill:#98dc9a"/>
 <path d="m96 8a88 88 0 0 0-62.188 25.812l62.188 62.188v-88z" style="fill:#f9de81"/>
 <path d="m14.594 62.697a88 88 0 0 0-6.5938 33.303h88l-81.406-33.303z" style="fill:#ff837d;opacity:.5"/>
 <path d="m96 8a88 88 0 0 0-33.295 6.6113l33.295 81.389v-88z" style="fill:#fdf5d9"/>
 <path d="m177.39 62.705-81.389 33.295h88a88 88 0 0 0-6.6113-33.295z" style="fill:#73ada4"/>
 <path d="m96 8v88l33.303-81.406a88 88 0 0 0-33.303-6.5938z" style="fill:#e0f4e0"/>
 <path d="m8 96a88 88 0 0 0 6.6113 33.295l81.389-33.295h-88z" style="fill:#ff837d"/>
 <path d="m96 96-33.303 81.406a88 88 0 0 0 33.303 6.5938v-88z" style="fill:#8c72bd"/>
 <path d="m96 96 81.406 33.303a88 88 0 0 0 6.5938-33.303h-88z" style="fill:#96dfd3"/>
 <path d="m96 96v87.9a86 86 0 0 0 2 0.09961 86 86 0 0 0 31.541-6.0137l-33.541-81.986z" style="fill:#54688c;opacity:.5"/>
 <circle cx="96" cy="96" r="52" style="fill:#fff;paint-order:stroke fill markers"/>
 <circle cx="96" cy="96" r="44" style="fill:#56595b;paint-order:stroke fill markers"/>
 <circle cx="96" cy="96" r="36.5" opacity=".63" style="fill:url(#linearGradient847);opacity:1"/>
 <path d="m96 72a24 24 0 0 0-24 24 24 24 0 0 0 24 24 24 24 0 0 0 24-24 24 24 0 0 0-24-24zm0 12a12 12 0 0 1 12 12 12 12 0 0 1-12 12 12 12 0 0 1-12-12 12 12 0 0 1 12-12z" style="opacity:.25;paint-order:stroke fill markers"/>
 <circle cx="96" cy="96" r="8" style="opacity:.25;paint-order:stroke fill markers"/>
</svg>

<svg xmlns="http://www.w3.org/2000/svg" width="192" height="192"><defs><linearGradient id="a" x1="68" x2="124" y1="68" y2="124" gradientUnits="userSpaceOnUse"><stop offset="0" style="stop-color:#bd9aff"/><stop offset="1" style="stop-color:#728dbe"/></linearGradient></defs><path d="M8 96a88 88 0 0 0 88 88V96H8z" style="fill:#ba6561"/><path d="m96 96-62.188 62.188A88 88 0 0 0 96 184V96z" style="fill:#bd9aff"/><path d="M96 96v88a88 88 0 0 0 88-88H96z" style="fill:#9abeff"/><path d="M96 96v88a88 88 0 0 0 62.188-25.812L96 96z" style="fill:#728dbe"/><path d="M96 8v88h88A88 88 0 0 0 96 8z" style="fill:#71a372"/><path d="M96 8A88 88 0 0 0 8 96h88V8z" style="fill:#f8c18c"/><path d="M96 8v88l62.188-62.188A88 88 0 0 0 96 8z" style="fill:#98dc9a"/><path d="M96 8a88 88 0 0 0-62.188 25.812L96 96V8z" style="fill:#f9de81"/><path d="M14.594 62.697A88 88 0 0 0 8 96h88L14.594 62.697z" style="fill:#ff837d;opacity:.5"/><path d="M96 8a88 88 0 0 0-33.295 6.611L96 96.001V8z" style="fill:#fdf5d9"/><path d="M177.39 62.705 96.001 96h88a88 88 0 0 0-6.611-33.295z" style="fill:#73ada4"/><path d="M96 8v88l33.303-81.406A88 88 0 0 0 96 8z" style="fill:#e0f4e0"/><path d="M8 96a88 88 0 0 0 6.611 33.295L96.001 96H8z" style="fill:#ff837d"/><path d="m96 96-33.303 81.406A88 88 0 0 0 96 184V96z" style="fill:#8c72bd"/><path d="m96 96 81.406 33.303A88 88 0 0 0 184 96H96z" style="fill:#96dfd3"/><path d="M96 96v87.9a86 86 0 0 0 2 .1 86 86 0 0 0 31.541-6.014L96 96z" style="fill:#54688c;opacity:.5"/><circle cx="96" cy="96" r="52" style="fill:#fff;paint-order:stroke fill markers"/><circle cx="96" cy="96" r="44" style="fill:#56595b;paint-order:stroke fill markers"/><circle cx="96" cy="96" r="36.5" opacity=".63" style="fill:url(#a);opacity:1"/><path d="M96 72a24 24 0 0 0-24 24 24 24 0 0 0 24 24 24 24 0 0 0 24-24 24 24 0 0 0-24-24zm0 12a12 12 0 0 1 12 12 12 12 0 0 1-12 12 12 12 0 0 1-12-12 12 12 0 0 1 12-12z" style="opacity:.25;paint-order:stroke fill markers"/><circle cx="96" cy="96" r="8" style="opacity:.25;paint-order:stroke fill markers"/></svg>
